X:1     %Music
T:Rosetta and her Gay Ploughboy
B:Broadwood, L, 1908, English Traditional Songs and Carols, London, Boosey
N:Reprinted by EP Publishing Limited, Rowman & Littlefield, Totowa, New Jersey, 1974
Z:Lucy Broadwood
S:Mr. H Burstow, 1893
F:http://www.folkinfo.org/songs
M:C     %Meter
L:1/8     %
K:D
A2 |d2 d2 B2 G2 |=c2 A2 F2 D2 |
w:You cons-tant lov-ers give at-ten-tion
G2 A2 F2 GA | B2 A2 D2
w:While a tale to_ you I tell,                
A2 |d2 d2 B2 G2 |=c2 A2 F2     
w:Con-cern-ing of two lov-ers true,    
D2 |G2 G2 (AF) (GA) |B2 A2 D2
w:Who in one house_ for_ years did dwell:
D2 |F3 F G2 A2 |B2 A2 F2 D    
w:Ro-set-ta was a far-mer's daught-er    
 D |A2 A2 F2 A2 |B2 c2 d2 z
w:And al-ways was her par-ents' joy,
A |d2 d2 B2 G2 |=c2 A2 F2 D2 |
w:Till Cu-pid in a snare had caught her,
G2 A2 E2 G2 |B2 A2 HD2 |]
w:With her fath-er's gay plough-boy.